X: 433
T: Bizi İnsan
C: Cinuçen Tanrıkorur
O: Turkey
F: http://compmusic.upf.edu/node/140
N: buselik--ilahi--sofyan--bizi_insan--cinucen_tanrikorur
N: makam= buselik
N: form= ilahi
N: usul= sofyan = 4/4
M: 4/4
L: 1/16
K: C    
Q: 1/4=60
%%MIDI tuningsystem comma53
z2Bc B2c2 BA3 B2c2  | Gc3 B2A2 Bc3 d2e2  | \
w:   |   | 
^fg3 f2a2 ag3 =f2e2  | 
w:   | 
de3 e2c2 dc3 d2e2  | cc3 B2A2 ^GA3 B2A2  | \
w:   |   | 
z2Bc B2c2 d_7/8e2d cBc2  | 
w:   | 
ccB2 A2^GA3B2 A2z2  | BcB2 c2d_7/8e2dcB c2cc  | 
w:   |   | 
B2A2 ^GA3 B2A2 de3  | gze2 dc3 d2e2 z2cc  | \
w:   |   | 
c2B2 BA3 B2c2 gg3  | 
w:   | 
aa3 _1/4e_7/8e2d cBc2 Bc3  | B2A2 Bc3 d2e2 cc3  | \
w:   |   | 
B2A2 ^GA3 B2A2 z2Bc  | 
w:   | 
B2c2 d_7/8e2d cBc2 ccB2  | A2^GA3B2 A2z2 BcB2  | \
w:   |   | 
c2d_7/8e2dcB c2cc B2A2  | 
w:   | 
^GA3 B2A2 ^fg3 _7/8ag3  | ^fe3 f2g2 _7/8aa3 ab2g3ga2f3 f2e2 e=f3  | 
w:   |   | 
ga3 gf3 e2d2 de3  | e2c2 dc3 d2e2 cc3  | \
w:   |   | 
B2A2 ^GA3 B2A2 z2Bc  | 
w:   | 
B2c2 d_7/8e2d cBc2 ccB2  | A2^GA3B2 A2z2 BcB2  | \
w:   |   | 
c2d_7/8e2dcB c2cc B2A2  | 
w:   | 
^GA3 B2A2 bc'3 b2a2  | ^ga3 b2c'2 z2d'd' c'b3  | \
w:   |   | 
a^g3 f2e2 ^f=g3 a2g2  | 
w:   | 
fe3 d2c2 Bc3 B2A2  | Bc3 d2e2 cc3 B2A2  | \
w:   |   | 
^GA3 B2A2 z2Bc B2c2  | 
w:   | 
d_7/8e2d cBc2 ccB2 A2^GA3B2 A2z2 BcB2 c2de2dcB c2cc B2A2 GA3  | 
w:   | 
B2A2 d_7/8e3 d2c2 Bc3  | B2A2 Bc3 d2e2 eg3  | \
w:   |   | 
f2e2 bc'3 b2a2 gf3  | 
w:   | 
e2d2 de3 e2c2 dc3  | d2e2 cc3 B2A2 ^GA3  | \
w:   |   | 
B2A2 z2Bc B2c2 d_7/8e2d  | 
w:   | 
cBc2 ccB2 A2^GA3B2  | A2z2 BcB2 c2d_7/8e2dcB  | 
w:   |   | 
c2cc B2A2 ^GA3 B2A2  | |


